img/delete.svg

<svg fill="none" height="17" viewBox="0 0 16 17" width="16" xmlns="http://www.w3.org/2000/svg"><path d="m12.6673 3.16667h-2.3333l-.66668-.66667h-3.33334l-.66666.66667h-2.33334v1.33333h9.33332m-8.66665 8.6667c0 .3536.14048.6927.39053.9428.25004.25.58918.3905.9428.3905h5.33332c.3536 0 .6928-.1405.9428-.3905.2501-.2501.3906-.5892.3906-.9428v-8.00003h-8.00005z" fill="#d94e4c"/></svg>

<svg width="16" height="17" viewBox="0 0 16 17" fill="none" xmlns="http://www.w3.org/2000/svg">
<path d="M12.6673 3.16667H10.334L9.66732 2.5H6.33398L5.66732 3.16667H3.33398V4.5H12.6673M4.00065 13.1667C4.00065 13.5203 4.14113 13.8594 4.39118 14.1095C4.64122 14.3595 4.98036 14.5 5.33398 14.5H10.6673C11.0209 14.5 11.3601 14.3595 11.6101 14.1095C11.8602 13.8594 12.0007 13.5203 12.0007 13.1667V5.16667H4.00065V13.1667Z" fill="#D94E4C"/>
</svg>
